X:925
T:Reel 925
M:4/4
K:Fmaj
L:1/8
F>F (3FEF C>F (3FEF |G>F (3FEF C>F (3FEF |G>G (3GGG e>G (3GFG |d>G (3GGG d2cB| (3AGF  (3GFE F>F (3FEF |G>D (3EDC d2c2|B>G (3GGB AFGF|EFGE B2|c2|A>F (3FFF cFFE|CF (3FEF CFAc|B>G (3GGG D>GGBGB|d>G (3GGG G2cB| (3AGF cF DFCF (3FEF |G>F (3GEF G2GB| (3cde df cBAG| (3FEF _ec f2|
